public/front/assets/imgs/brand/disney.svg

<svg width="144" height="43" viewBox="0 0 144 43" fill="none" xmlns="http://www.w3.org/2000/svg">
<g clip-path="url(#clip0_994_239)">
<path d="M96.293 26.8793C95.993 26.7793 95.793 26.4793 95.793 26.0793C95.793 25.6793 96.193 25.0793 96.793 25.0793C97.393 25.0793 97.193 25.0793 97.293 25.1793C98.293 25.8793 99.393 26.1793 100.293 26.1793C101.193 26.1793 101.893 25.7793 101.893 25.0793C101.893 24.1793 100.793 23.9793 99.593 23.5793C97.993 23.1793 96.293 22.4793 96.293 20.4793C96.293 18.4793 97.993 17.2793 99.993 17.2793C101.993 17.2793 102.293 17.5793 103.293 18.1793C103.593 18.3793 103.893 18.6793 103.893 19.0793C103.893 19.4793 103.393 20.0793 102.893 20.0793C102.393 20.0793 102.593 20.0793 102.393 19.9793C101.493 19.5793 100.693 19.2793 99.893 19.2793C99.093 19.2793 98.393 19.6793 98.393 20.3793C98.393 21.1793 99.493 21.4793 100.793 21.8793C102.293 22.3793 104.093 23.0793 104.093 24.9793C104.093 27.1793 102.393 28.2793 100.193 28.2793C97.993 28.2793 97.393 27.8793 96.193 26.9793L96.293 26.8793Z" fill="#040633"/>
<path d="M106.693 24.9785V19.4785H106.293C105.693 19.4785 105.293 18.9785 105.293 18.4785C105.293 17.9785 105.793 17.4785 106.293 17.4785H106.693V15.6785C106.693 14.9785 107.193 14.4785 107.893 14.4785C108.593 14.4785 109.093 14.9785 109.093 15.6785V17.4785H110.993C111.593 17.4785 111.993 17.9785 111.993 18.4785C111.993 18.9785 111.493 19.4785 110.993 19.4785H109.093V24.6785C109.093 25.5785 109.593 25.9785 110.393 25.9785C111.193 25.9785 110.893 25.9785 110.993 25.9785C111.493 25.9785 111.993 26.3785 111.993 26.9785C111.993 27.5785 111.693 27.7785 111.393 27.8785C110.893 28.0785 110.393 28.1785 109.693 28.1785C107.893 28.1785 106.693 27.3785 106.693 25.0785V24.9785Z" fill="#040633"/>
<path d="M113.293 22.6787C113.293 19.6787 115.693 17.1787 118.893 17.1787C122.093 17.1787 124.493 19.5787 124.493 22.6787C124.493 25.6787 122.093 28.1787 118.893 28.1787C115.693 28.1787 113.293 25.7787 113.293 22.7787V22.6787ZM122.093 22.6787C122.093 20.7787 120.793 19.2787 118.893 19.2787C116.993 19.2787 115.693 20.7787 115.693 22.5787C115.693 24.4787 116.993 25.9787 118.893 25.9787C120.793 25.9787 122.093 24.4787 122.093 22.6787Z" fill="#040633"/>
<path d="M126.691 18.4793C126.691 17.7793 127.291 17.2793 127.991 17.2793C128.691 17.2793 129.191 17.7793 129.191 18.4793V19.5793C129.791 18.2793 130.791 17.2793 131.791 17.2793C132.791 17.2793 132.991 17.7793 132.991 18.4793C132.991 19.1793 132.591 19.5793 131.991 19.6793C130.291 19.9793 129.091 21.2793 129.091 23.7793V26.8793C129.091 27.5793 128.591 28.0793 127.891 28.0793C127.191 28.0793 126.691 27.5793 126.691 26.8793V18.5793V18.4793Z" fill="#040633"/>
<path d="M141.59 22.0789C141.39 20.4789 140.49 19.2789 138.89 19.2789C137.39 19.2789 136.19 20.5789 136.19 22.0789H141.59ZM133.89 22.8789C133.79 19.9789 135.99 17.4789 138.89 17.3789C138.89 17.3789 138.99 17.3789 139.09 17.3789C141.89 17.3789 144.09 19.5789 144.09 22.3789C144.09 22.3789 144.09 22.4789 144.09 22.5789C144.09 23.1789 143.59 23.6789 142.99 23.6789H136.39C136.49 25.1789 137.79 26.3789 139.39 26.3789C140.29 26.3789 141.19 26.0789 141.89 25.4789C142.09 25.3789 142.29 25.2789 142.49 25.2789C142.99 25.2789 143.49 25.6789 143.49 26.2789C143.49 26.5789 143.39 26.7789 143.19 26.9789C142.19 27.9789 140.79 28.4789 139.39 28.3789C136.49 28.4789 133.99 25.8877 133.89 22.9877C133.89 22.7877 133.89 23.0877 133.89 22.8877" fill="#040633"/>
<path d="M24.2915 4.67899C24.2915 4.67899 12.2915 -1.92101 2.19151 1.27899C2.19151 1.27899 1.59151 1.27899 0.991515 2.07899C0.391515 2.87899 -0.208485 3.37899 0.0915147 4.07899C0.391515 4.67899 1.89151 4.97899 3.29151 4.67899C3.29151 4.67899 3.89151 4.27899 3.19151 3.97899C2.39151 3.67899 1.99151 3.67899 1.99151 3.67899C1.99151 3.67899 1.59151 3.57899 1.99151 3.37899C2.39151 3.17899 6.99151 1.87899 15.0915 4.17899C23.0915 6.47899 33.8915 13.379 33.3915 20.079C32.8915 26.879 22.2915 26.879 22.2915 26.879C22.2915 26.879 20.0915 26.879 17.1915 26.279C17.1915 24.079 17.1915 20.279 17.2915 17.979C19.8915 18.179 25.1915 18.679 25.8915 19.879C25.8915 19.879 26.1915 20.179 25.0915 20.779C24.2915 21.279 23.5915 21.379 24.2915 21.779C24.2915 21.779 25.2915 22.479 25.9915 22.279C26.5915 22.079 28.3915 21.479 28.5915 19.679C28.7915 17.879 26.5915 16.079 23.4915 15.479C20.9915 14.979 19.6915 14.779 17.4915 14.779C17.4915 12.779 17.2915 10.279 16.8915 9.57899C16.3915 8.77899 15.7915 7.67899 15.2915 8.87899C14.7915 9.87899 14.3915 12.079 14.2915 14.979C10.8915 15.479 6.99151 16.779 5.89151 18.179C4.59151 19.679 5.89151 20.979 5.89151 21.179C5.89151 21.279 8.39151 24.979 13.6915 27.579C13.6915 28.579 13.8915 29.579 14.2915 30.179C15.0915 31.479 16.5915 30.579 16.7915 30.379C16.9915 30.279 17.0915 29.879 17.1915 28.879C19.5915 29.579 23.8915 30.379 28.5915 29.079C35.6915 27.179 36.7915 22.779 37.0915 20.179C37.3915 17.579 35.5915 10.779 24.3915 4.67899H24.2915ZM17.1915 17.779C17.5915 17.779 17.4915 17.779 17.1915 17.779ZM6.39151 20.379C6.39151 20.379 5.59151 19.479 6.79151 19.079C7.89151 18.679 10.0915 18.079 13.9915 17.879C13.9915 19.079 13.7915 21.579 13.4915 25.179C10.9915 24.279 8.39151 22.779 6.39151 20.379Z" fill="#040633"/>
<path d="M42.4912 13.1789C45.3912 12.2789 48.1912 9.57891 48.2912 7.37891C48.2912 5.17891 45.8912 5.07891 45.8912 5.07891C45.4912 3.67891 42.8912 3.77891 42.8912 3.77891C37.5912 4.07891 35.7912 7.67891 35.4912 8.57891C35.2912 9.37891 35.2912 10.6789 36.2912 11.5789C35.9912 12.3789 36.1912 12.7789 36.2912 12.9789C36.2912 13.2789 36.7912 14.0789 37.3912 13.9789C37.7912 13.9789 38.0912 13.6789 38.4912 12.8789C39.4912 13.3789 40.7912 13.5789 42.5912 13.0789L42.4912 13.1789ZM46.1912 8.37891C44.5912 11.3789 41.3912 11.3789 39.4912 10.9789C40.6912 9.17891 43.3912 7.07891 44.9912 6.77891C46.8912 6.47891 46.1912 8.27891 46.1912 8.27891V8.37891ZM37.7912 8.07891C38.5912 6.97891 39.5912 6.47891 40.8912 6.37891C39.1912 7.47891 38.0912 8.87891 37.3912 9.77891C37.1912 9.37891 37.1912 8.87891 37.7912 8.07891Z" fill="#040633"/>
<path d="M41.1899 22.8786C41.1899 22.8786 41.1899 18.4786 41.0899 17.5786C41.0899 16.6786 40.7899 16.1786 40.4899 15.7786C40.1899 15.3786 39.8899 14.8786 39.1899 15.3786C38.4899 15.9786 38.3899 19.5786 38.1899 22.3786C37.9899 25.2786 38.1899 27.0786 38.4899 27.5786C38.8899 28.0786 40.1899 28.2786 40.7899 27.8786C41.3899 27.4786 41.1899 23.1786 41.1899 23.1786V22.7786V22.8786Z" fill="#040633"/>
<path d="M55.6914 16.2787C54.7914 15.1787 49.6914 15.2787 49.6914 15.2787C47.7914 15.2787 43.3914 16.0787 42.7914 17.9787C42.1914 19.8787 42.6914 20.5787 42.6914 20.5787C43.1914 21.5787 46.8914 21.5787 47.8914 21.6787C48.8914 21.6787 51.5914 22.1787 52.4914 22.6787C53.3914 23.1787 52.7914 23.9787 52.7914 23.9787C51.8914 25.2787 46.9914 25.3787 46.9914 25.3787C46.9914 25.3787 45.1914 25.3787 44.7914 24.9787C44.2914 24.5787 44.1914 24.2787 44.7914 23.6787C45.2914 23.0787 46.5914 23.7787 46.5914 23.7787C46.5914 23.7787 47.6914 24.5787 49.0914 24.6787C50.5914 24.6787 51.5914 24.2787 51.6914 23.7787C51.6914 23.2787 50.4914 22.7787 50.4914 22.7787C46.1914 21.4787 44.3914 22.4787 44.3914 22.4787C41.9914 23.8787 43.6914 25.9787 43.6914 25.9787C47.3914 30.1787 53.4914 27.6787 54.1914 27.0787C54.8914 26.4787 55.1914 25.8787 55.2914 24.1787C55.2914 22.4787 54.6914 21.6787 54.6914 21.6787C53.4914 20.0787 49.9914 19.9787 48.9914 19.9787C47.9914 19.9787 46.0914 19.5787 45.5914 19.4787C45.0914 19.3787 45.4914 18.9787 45.4914 18.9787C46.0914 18.4787 50.7914 18.2787 53.2914 18.1787H54.6914C55.5914 17.8787 55.7914 17.3787 55.8914 16.9787C56.0914 16.5787 55.8914 16.3787 55.8914 16.3787L55.6914 16.2787Z" fill="#040633"/>
<path d="M63.2916 13.7791C63.2916 13.7791 62.7916 13.4791 62.5916 14.0791C62.3916 14.6791 62.5916 15.1791 62.5916 15.1791C63.8916 19.9791 64.0916 22.7791 64.0916 22.7791C64.0916 22.7791 64.0916 23.5791 64.0916 23.6791C63.9916 23.6791 63.7916 23.6791 63.7916 23.6791C63.6916 23.6791 62.1916 20.9791 62.1916 20.9791L61.8916 20.4791C60.1916 17.6791 59.2916 16.6791 59.2916 16.6791C58.9916 16.4791 58.3916 15.7791 57.5916 16.6791C56.7916 17.4791 56.0916 20.2791 55.7916 22.7791C55.4916 25.3791 55.5916 26.8791 55.9916 27.4791C56.3916 28.0791 57.1916 28.3791 57.8916 27.7791C58.5916 27.2791 58.5916 23.8791 58.6916 22.0791C58.8916 20.3791 58.9916 20.6791 58.9916 20.6791C59.1916 20.6791 59.8916 22.2791 59.8916 22.2791C59.8916 22.2791 61.8916 26.5791 63.1916 27.2791C64.4916 27.9791 65.5916 26.9791 66.0916 25.9791C66.4916 25.0791 67.2916 21.8791 66.3916 18.2791C65.3916 14.6791 63.2916 13.5791 63.2916 13.5791V13.7791Z" fill="#040633"/>
<path d="M76.6912 26.4787C76.8912 25.8787 76.2912 25.0787 75.6912 24.8787C75.1912 24.7787 71.1912 25.3787 70.6912 25.4787C70.1912 25.5787 70.3912 25.0787 70.3912 25.0787L71.0912 22.9787C71.0912 22.9787 74.8912 22.9787 75.3912 22.8787C75.8912 22.8787 75.9912 22.4787 75.9912 22.4787C75.9912 22.4787 75.9912 21.8787 75.9912 21.2787C75.9912 20.6787 75.4912 20.6787 75.4912 20.6787C73.9912 20.4787 71.9912 20.6787 71.9912 20.6787L72.4912 19.0787H72.6912C74.5912 19.0787 77.2912 18.8787 78.0912 18.6787C78.8912 18.4787 78.4912 17.6787 78.4912 17.6787C77.5912 15.7787 76.4912 15.7787 76.4912 15.7787C73.1912 15.5787 68.6912 16.2787 68.0912 16.4787C67.5912 16.6787 67.5912 17.0787 68.1912 17.8787C68.7912 18.6787 69.9912 18.6787 69.9912 18.6787L68.9912 20.6787C68.1912 20.6787 67.8912 20.9787 67.8912 20.9787C67.3912 21.4787 67.8912 22.8787 67.8912 22.8787C67.8912 22.8787 67.6912 23.2787 67.4912 23.9787C67.2912 24.6787 66.5912 25.8787 67.4912 27.5787C68.3912 29.3787 69.7912 29.2787 69.7912 29.2787C72.2912 29.2787 76.2912 27.0787 76.4912 26.2787L76.6912 26.4787Z" fill="#040633"/>
<path d="M89.3914 17.5793C88.0914 16.6793 86.9914 17.5793 86.9914 17.5793C84.7914 18.7793 81.9914 22.1793 80.3914 24.1793C80.1914 22.6793 81.1914 20.8793 81.1914 20.8793L81.3914 20.4793C82.5914 18.3793 82.7914 18.1793 83.0914 17.6793C83.2914 17.1793 83.4914 15.9793 83.1914 15.8793C82.8914 15.7793 82.4914 16.1793 82.4914 16.1793C78.7914 19.2793 78.1914 22.7793 78.1914 22.7793C77.7914 24.5793 78.1914 25.9793 78.5914 26.8793C76.4914 31.1793 75.6914 35.3793 75.6914 36.9793C75.6914 38.6793 76.9914 39.8793 77.7914 40.1793C78.4914 40.4793 78.5914 39.5793 78.5914 39.5793C79.2914 35.1793 80.3914 32.1793 81.6914 29.1793C85.3914 30.1793 88.3914 26.2793 89.3914 24.8793C90.4914 23.2793 90.4914 20.9793 90.4914 20.9793C90.4914 20.7793 90.6914 18.4793 89.3914 17.5793ZM86.6914 24.6793C86.2914 25.0793 84.7914 25.7793 83.3914 25.9793C84.8914 23.2793 86.5914 21.3793 87.5914 20.3793C88.7914 19.1793 88.8914 20.3793 88.8914 20.3793C89.0914 22.5793 87.3914 24.1793 86.6914 24.7793V24.6793Z" fill="#040633"/>
</g>
<defs>
<clipPath id="clip0_994_239">
<rect width="144" height="43" fill="white"/>
</clipPath>
</defs>
</svg>

<svg xmlns="http://www.w3.org/2000/svg" width="144" height="43" fill="none"><g fill="#040633" clip-path="url(#a)"><path d="M96.293 26.88c-.3-.1-.5-.4-.5-.8s.4-1 1-1 .4 0 .5.1c1 .7 2.1 1 3 1s1.6-.4 1.6-1.1c0-.9-1.1-1.1-2.3-1.5-1.6-.4-3.3-1.1-3.3-3.1s1.7-3.2 3.7-3.2 2.3.3 3.3.9c.3.2.6.5.6.9s-.5 1-1 1-.3 0-.5-.1c-.9-.4-1.7-.7-2.5-.7s-1.5.4-1.5 1.1c0 .8 1.1 1.1 2.4 1.5 1.5.5 3.3 1.2 3.3 3.1 0 2.2-1.7 3.3-3.9 3.3s-2.8-.4-4-1.3zM106.693 24.979v-5.5h-.4c-.6 0-1-.5-1-1s.5-1 1-1h.4v-1.8c0-.7.5-1.2 1.2-1.2s1.2.5 1.2 1.2v1.8h1.9c.6 0 1 .5 1 1s-.5 1-1 1h-1.9v5.2c0 .9.5 1.3 1.3 1.3h.6c.5 0 1 .4 1 1s-.3.8-.6.9c-.5.2-1 .3-1.7.3-1.8 0-3-.8-3-3.1zM113.293 22.679c0-3 2.4-5.5 5.6-5.5s5.6 2.4 5.6 5.5c0 3-2.4 5.5-5.6 5.5s-5.6-2.4-5.6-5.4zm8.8 0c0-1.9-1.3-3.4-3.2-3.4s-3.2 1.5-3.2 3.3c0 1.9 1.3 3.4 3.2 3.4s3.2-1.5 3.2-3.3M126.691 18.48c0-.7.6-1.2 1.3-1.2s1.2.5 1.2 1.2v1.1c.6-1.3 1.6-2.3 2.6-2.3s1.2.5 1.2 1.2-.4 1.1-1 1.2c-1.7.3-2.9 1.6-2.9 4.1v3.1c0 .7-.5 1.2-1.2 1.2s-1.2-.5-1.2-1.2v-8.4M141.59 22.079c-.2-1.6-1.1-2.8-2.7-2.8-1.5 0-2.7 1.3-2.7 2.8zm-7.7.8c-.1-2.9 2.1-5.4 5-5.5h.2c2.8 0 5 2.2 5 5v.2c0 .6-.5 1.1-1.1 1.1h-6.6c.1 1.5 1.4 2.7 3 2.7.9 0 1.8-.3 2.5-.9.2-.1.4-.2.6-.2.5 0 1 .4 1 1 0 .3-.1.5-.3.7-1 1-2.4 1.5-3.8 1.4-2.9.1-5.4-2.491-5.5-5.391v-.1M24.292 4.679s-12-6.6-22.1-3.4c0 0-.6 0-1.2.8s-1.2 1.3-.9 2c.3.6 1.8.9 3.2.6 0 0 .6-.4-.1-.7-.8-.3-1.2-.3-1.2-.3s-.4-.1 0-.3 5-1.5 13.1.8c8 2.3 18.8 9.2 18.3 15.9-.5 6.8-11.1 6.8-11.1 6.8s-2.2 0-5.1-.6c0-2.2 0-6 .1-8.3 2.6.2 7.9.7 8.6 1.9 0 0 .3.3-.8.9-.8.5-1.5.6-.8 1 0 0 1 .7 1.7.5.6-.2 2.4-.8 2.6-2.6s-2-3.6-5.1-4.2c-2.5-.5-3.8-.7-6-.7 0-2-.2-4.5-.6-5.2-.5-.8-1.1-1.9-1.6-.7-.5 1-.9 3.2-1 6.1-3.4.5-7.3 1.8-8.4 3.2-1.3 1.5 0 2.8 0 3 0 .1 2.5 3.8 7.8 6.4 0 1 .2 2 .6 2.6.8 1.3 2.3.4 2.5.2.2-.1.3-.5.4-1.5 2.4.7 6.7 1.5 11.4.2 7.1-1.9 8.2-6.3 8.5-8.9s-1.5-9.4-12.7-15.5zm-7.1 13.1c.4 0 .3 0 0 0m-10.8 2.6s-.8-.9.4-1.3c1.1-.4 3.3-1 7.2-1.2 0 1.2-.2 3.7-.5 7.3-2.5-.9-5.1-2.4-7.1-4.8M42.491 13.179c2.9-.9 5.7-3.6 5.8-5.8 0-2.2-2.4-2.3-2.4-2.3-.4-1.4-3-1.3-3-1.3-5.3.3-7.1 3.9-7.4 4.8-.2.8-.2 2.1.8 3-.3.8-.1 1.2 0 1.4 0 .3.5 1.1 1.1 1 .4 0 .7-.3 1.1-1.1 1 .5 2.3.7 4.1.2zm3.7-4.8c-1.6 3-4.8 3-6.7 2.6 1.2-1.8 3.9-3.9 5.5-4.2 1.9-.3 1.2 1.5 1.2 1.5zm-8.4-.3c.8-1.1 1.8-1.6 3.1-1.7-1.7 1.1-2.8 2.5-3.5 3.4-.2-.4-.2-.9.4-1.7M41.19 22.879s0-4.4-.1-5.3c0-.9-.3-1.4-.6-1.8s-.6-.9-1.3-.4c-.7.6-.8 4.2-1 7-.2 2.9 0 4.7.3 5.2.4.5 1.7.7 2.3.3s.4-4.7.4-4.7v-.4zM55.691 16.279c-.9-1.1-6-1-6-1-1.9 0-6.3.8-6.9 2.7s-.1 2.6-.1 2.6c.5 1 4.2 1 5.2 1.1 1 0 3.7.5 4.6 1s.3 1.3.3 1.3c-.9 1.3-5.8 1.4-5.8 1.4s-1.8 0-2.2-.4c-.5-.4-.6-.7 0-1.3.5-.6 1.8.1 1.8.1s1.1.8 2.5.9c1.5 0 2.5-.4 2.6-.9 0-.5-1.2-1-1.2-1-4.3-1.3-6.1-.3-6.1-.3-2.4 1.4-.7 3.5-.7 3.5 3.7 4.2 9.8 1.7 10.5 1.1s1-1.2 1.1-2.9c0-1.7-.6-2.5-.6-2.5-1.2-1.6-4.7-1.7-5.7-1.7s-2.9-.4-3.4-.5-.1-.5-.1-.5c.6-.5 5.3-.7 7.8-.8h1.4c.9-.3 1.1-.8 1.2-1.2.2-.4 0-.6 0-.6zM63.292 13.78s-.5-.3-.7.3 0 1.1 0 1.1c1.3 4.8 1.5 7.6 1.5 7.6v.9h-.3c-.1 0-1.6-2.7-1.6-2.7l-.3-.5c-1.7-2.8-2.6-3.8-2.6-3.8-.3-.2-.9-.9-1.7 0-.8.8-1.5 3.6-1.8 6.1-.3 2.6-.2 4.1.2 4.7s1.2.9 1.9.3c.7-.5.7-3.9.8-5.7.2-1.7.3-1.4.3-1.4.2 0 .9 1.6.9 1.6s2 4.3 3.3 5 2.4-.3 2.9-1.3c.4-.9 1.2-4.1.3-7.7-1-3.6-3.1-4.7-3.1-4.7zM76.691 26.479c.2-.6-.4-1.4-1-1.6-.5-.1-4.5.5-5 .6s-.3-.4-.3-.4l.7-2.1s3.8 0 4.3-.1c.5 0 .6-.4.6-.4v-1.2c0-.6-.5-.6-.5-.6-1.5-.2-3.5 0-3.5 0l.5-1.6h.2c1.9 0 4.6-.2 5.4-.4s.4-1 .4-1c-.9-1.9-2-1.9-2-1.9-3.3-.2-7.8.5-8.4.7-.5.2-.5.6.1 1.4s1.8.8 1.8.8l-1 2c-.8 0-1.1.3-1.1.3-.5.5 0 1.9 0 1.9s-.2.4-.4 1.1-.9 1.9 0 3.6c.9 1.8 2.3 1.7 2.3 1.7 2.5 0 6.5-2.2 6.7-3zM89.391 17.58c-1.3-.9-2.4 0-2.4 0-2.2 1.2-5 4.6-6.6 6.6-.2-1.5.8-3.3.8-3.3l.2-.4c1.2-2.1 1.4-2.3 1.7-2.8.2-.5.4-1.7.1-1.8s-.7.3-.7.3c-3.7 3.1-4.3 6.6-4.3 6.6-.4 1.8 0 3.2.4 4.1-2.1 4.3-2.9 8.5-2.9 10.1 0 1.7 1.3 2.9 2.1 3.2.7.3.8-.6.8-.6.7-4.4 1.8-7.4 3.1-10.4 3.7 1 6.7-2.9 7.7-4.3 1.1-1.6 1.1-3.9 1.1-3.9 0-.2.2-2.5-1.1-3.4m-2.7 7.1c-.4.4-1.9 1.1-3.3 1.3 1.5-2.7 3.2-4.6 4.2-5.6 1.2-1.2 1.3 0 1.3 0 .2 2.2-1.5 3.8-2.2 4.4z"/></g><defs><clipPath id="a"><path fill="#fff" d="M0 0h144v43H0z"/></clipPath></defs></svg>
